Manual/img/Component/Ars Goetia Identification.svg

<?xml version="1.0" encoding="UTF-8" standalone="no"?>
<svg
   xmlns:dc="http://purl.org/dc/elements/1.1/"
   xmlns:cc="http://creativecommons.org/ns#"
   xmlns:rdf="http://www.w3.org/1999/02/22-rdf-syntax-ns#"
   xmlns:svg="http://www.w3.org/2000/svg"
   xmlns="http://www.w3.org/2000/svg"
   xmlns:sodipodi="http://sodipodi.sourceforge.net/DTD/sodipodi-0.dtd"
   xmlns:inkscape="http://www.inkscape.org/namespaces/inkscape"
   viewBox="0 0 348 348"
   fill="none"
   version="1.1"
   id="svg887"
   sodipodi:docname="Ars Goetia Identification.svg"
   inkscape:version="0.92.5 (2060ec1f9f, 2020-04-08)">
  <metadata
     id="metadata893">
    <rdf:RDF>
      <cc:Work
         rdf:about="">
        <dc:format>image/svg+xml</dc:format>
        <dc:type
           rdf:resource="http://purl.org/dc/dcmitype/StillImage" />
      </cc:Work>
    </rdf:RDF>
  </metadata>
  <defs
     id="defs891" />
  <sodipodi:namedview
     pagecolor="#ffffff"
     bordercolor="#666666"
     borderopacity="1"
     objecttolerance="10"
     gridtolerance="10"
     guidetolerance="10"
     inkscape:pageopacity="0"
     inkscape:pageshadow="2"
     inkscape:window-width="1920"
     inkscape:window-height="1001"
     id="namedview889"
     showgrid="false"
     inkscape:zoom="1.191092"
     inkscape:cx="234.56296"
     inkscape:cy="274.27243"
     inkscape:window-x="-9"
     inkscape:window-y="-9"
     inkscape:window-maximized="1"
     inkscape:current-layer="svg887" />
  <path
     d="M5.08 5.78h336.91v337.67H5.08z"
     id="path815"
     stroke-width="2"
     stroke="#000" />
  <path
     d="M282.73 40.55c0-8.37 6.97-15.16 15.56-15.16 4.13 0 8.09 1.6 11 4.44a14.97 14.97 0 014.56 10.72c0 8.38-6.96 15.17-15.56 15.17-8.59 0-15.56-6.8-15.56-15.17z"
     stroke-width="2"
     stroke="#000"
     id="path817" />
  <path
     d="M21.45 27.42h150.07V177.5H21.45z"
     fill="#fff"
     stroke="#000"
     stroke-width="1.85"
     id="path819" />
  <path
     d="M198.52 36.8a9.02 9.02 0 01-9.02 9.01 9.02 9.02 0 01-9.02-9.02 9.02 9.02 0 019.02-9.01 9.02 9.02 0 019.02 9.01zm0 130.32a9.02 9.02 0 01-9.02 9.02 9.02 9.02 0 01-9.02-9.02 9.02 9.02 0 019.02-9.02 9.02 9.02 0 019.02 9.02zm0-68.39a9.02 9.02 0 01-9.02 9.02 9.02 9.02 0 01-9.02-9.02 9.02 9.02 0 019.02-9.01 9.02 9.02 0 019.02 9.02z"
     fill="#fff"
     stroke="#000"
     stroke-width="1.96"
     id="path821" />
  <path
     d="M12.52 198.75h320.83v21.8H12.53z"
     fill="#fff"
     stroke="#000"
     stroke-width="2.29"
     id="path823" />
  <g
     fill="#fff"
     stroke="#000"
     stroke-width="2.5"
     id="g881">
    <path
       d="M13.32 334.07h319.24V228.28H13.32zM13.32 249.44h319.24M13.32 270.6h319.24M13.32 291.76h319.24M13.32 312.92h319.24M34.48 228.3v21.14M55.64 228.3v21.14M76.79 228.3v21.14M97.94 228.3v21.14M119.1 228.3v21.14M140.25 228.3v21.14M161.41 228.3v21.14M182.56 228.3v21.14M203.72 228.3v21.14M203.72 228.3v21.14M224.87 228.3v21.14M246.03 228.3v21.14M267.19 228.3v21.14M288.34 228.3v21.14M44.08 249.44v21.16M65.24 249.44v21.16M86.39 249.44v21.16M107.54 249.44v21.16M128.7 249.44v21.16M149.85 249.44v21.16M171.01 249.44v21.16M192.16 249.44v21.16M213.32 249.44v21.16M234.47 249.44v21.16M255.63 249.44v21.16M276.79 249.44v21.16M297.94 249.44v21.16M50.12 270.6v21.16M71.28 270.6v21.16M92.44 270.6v21.16M113.59 270.6v21.16M134.74 270.6v21.16M155.9 270.6v21.16M177.05 270.6v21.16M198.21 270.6v21.16M219.36 270.6v21.16M240.52 270.6v21.16M261.67 270.6v21.16M282.83 270.6v21.16M59.72 291.76v21.16M80.88 291.76v21.16M102.04 291.76v21.16M123.19 291.76v21.16M144.34 291.76v21.16M165.5 291.76v21.16M186.65 291.76v21.16M207.81 291.76v21.16M228.96 291.76v21.16M250.12 291.76v21.16M271.27 291.76v21.16M44.08 312.92v21.15M65.24 312.92v21.15M297.94 312.92v21.15M255.63 312.92v21.15M276.79 312.92v21.15M97.24 312.92v21.15M223.63 312.92v21.15"
       stroke-width="2"
       id="path879" />
  </g>
  <path
     stroke="#000"
     stroke-width="2"
     d="M38.62 71.44h115.74v62.04H38.62z"
     id="path883" />
  <path
     d="M106.11 93.8q0 2.24-.8 4-.8 1.73-2.1 3.07-1.27 1.3-2.93 2.44-1.66 1.14-3.53 2.21v5.13h-4.08v-6.95l3.19-1.85q1.73-1 2.82-2.03 1.33-1.18 2.05-2.43.73-1.28.73-3.24 0-2.57-1.75-3.83-1.73-1.27-4.49-1.27-2.46 0-4.67.77-2.19.78-3.46 1.57h-.23v-4.65q1.6-.61 4.03-1.09 2.46-.5 4.65-.5 4.9 0 7.72 2.4 2.85 2.36 2.85 6.26zm-9 25.96h-4.65v-4.8h4.65z"
     font-size="46.67"
     aria-label="?"
     style="font-size:46.66666794px"
     font-weight="400"
     font-family="sans-serif"
     letter-spacing="0"
     word-spacing="0"
     fill="#000"
     id="path885" />
  <g
     transform="matrix(0.60385588,0,0,0.60385588,217.35592,69.335557)"
     id="layer1">
    <path
       inkscape:connector-curvature="0"
       d="M 87.906253,0.5 58.4375,92.593755 l 5.96875,4.8125 22.750003,-71.750005 11.6875,35.062505 8.687497,-0.25 z m 7.09375,11.96875 2.46875,8.1875 C 121.17691,23.7053 141.14249,38.708755 151.15625,59.406255 L 160,59.781255 C 149.10187,33.72076 124.38715,14.90445 95.000003,12.46875 Z m -13.8125,0.0625 C 51.23846,15.3294 26.243338,35.15851 16,62.250005 h 8.53125 C 33.94736,40.326595 54.29016,24.21253 78.718753,20.78125 Z M 176,61.968755 l -97.812497,1.625 -2.15625,7.21875 77.281247,-0.875 -32.40625,23.875 2,7.625005 z m -111.5,1.875 -64,1.0625 79.281253,56.437505 6.71875,-5.21875 -61.562503,-44.718755 37.40625,-0.4375 z m 47,8.78125 -8.59375,0.25 24.21875,72.750005 -30.187497,-21.9375 -7.15625,4.78125 52.156247,37.15625 z m 52.78125,0.8125 -7.15625,4.8125 c 0.6132,3.71504 0.9375,7.51717 0.9375,11.40625 0,19.918035 -8.37005,37.874585 -21.78125,50.562505 l 2.34375,8.53125 c 16.72779,-14.21786 27.34375,-35.42317 27.34375,-59.093755 0,-5.56319 -0.57343,-10.98809 -1.6875,-16.21875 z m -152.0625,2.6875 c -0.773945,4.39417 -1.1875,8.91496 -1.1875,13.53125 0,23.178335 10.183506,43.982925 26.3125,58.187505 L 39.875,139.43751 C 26.933388,126.79885 18.90625,109.16715 18.90625,89.656255 c 0,-3.036 0.185141,-6.0355 0.5625,-8.96875 z M 110,101.87501 l -61.34375,45.25 11.5625,-36.5 -6.21875,-4.25 -19.4375,60.71875 77.59375,-57.6875 z m 8.5625,50.5625 c -9.0953,4.36532 -19.299527,6.8125 -30.062497,6.8125 -10.73589,0 -20.91858,-2.43655 -30.000003,-6.78125 l -7.40625,5.0625 c 11.08951,6.13013 23.839503,9.625 37.406253,9.625 13.563487,0 26.318597,-3.49762 37.406247,-9.625 z"
       id="path3019"
       style="fill:#000000;stroke:#000000;stroke-width:1px;stroke-linecap:butt;stroke-linejoin:miter;stroke-opacity:1" />
  </g>
</svg>

<svg xmlns="http://www.w3.org/2000/svg" viewBox="0 0 348 348" fill="none"><path d="M5.08 5.78h336.91v337.67H5.08z" stroke-width="2" stroke="#000"/><path d="M282.73 40.55c0-8.37 6.97-15.16 15.56-15.16 4.13 0 8.09 1.6 11 4.44a14.97 14.97 0 014.56 10.72c0 8.38-6.96 15.17-15.56 15.17-8.59 0-15.56-6.8-15.56-15.17z" stroke-width="2" stroke="#000"/><path d="M21.45 27.42h150.07V177.5H21.45z" fill="#fff" stroke="#000" stroke-width="1.85"/><path d="M198.52 36.8a9.02 9.02 0 01-9.02 9.01 9.02 9.02 0 01-9.02-9.02 9.02 9.02 0 019.02-9.01 9.02 9.02 0 019.02 9.01zm0 130.32a9.02 9.02 0 01-9.02 9.02 9.02 9.02 0 01-9.02-9.02 9.02 9.02 0 019.02-9.02 9.02 9.02 0 019.02 9.02zm0-68.39a9.02 9.02 0 01-9.02 9.02 9.02 9.02 0 01-9.02-9.02 9.02 9.02 0 019.02-9.01 9.02 9.02 0 019.02 9.02z" fill="#fff" stroke="#000" stroke-width="1.96"/><path d="M12.52 198.75h320.83v21.8H12.53z" fill="#fff" stroke="#000" stroke-width="2.29"/><path d="M13.32 334.07h319.24V228.28H13.32zm0-84.63h319.24M13.32 270.6h319.24M13.32 291.76h319.24M13.32 312.92h319.24M34.48 228.3v21.14m21.16-21.14v21.14m21.15-21.14v21.14m21.15-21.14v21.14m21.16-21.14v21.14m21.15-21.14v21.14m21.16-21.14v21.14m21.15-21.14v21.14m21.16-21.14v21.14m0-21.14v21.14m21.15-21.14v21.14m21.16-21.14v21.14m21.16-21.14v21.14m21.15-21.14v21.14m-244.26 0v21.16m21.16-21.16v21.16m21.15-21.16v21.16m21.15-21.16v21.16m21.16-21.16v21.16m21.15-21.16v21.16m21.16-21.16v21.16m21.15-21.16v21.16m21.16-21.16v21.16m21.15-21.16v21.16m21.16-21.16v21.16m21.16-21.16v21.16m21.15-21.16v21.16m-247.82 0v21.16m21.16-21.16v21.16m21.16-21.16v21.16m21.15-21.16v21.16m21.15-21.16v21.16m21.16-21.16v21.16m21.15-21.16v21.16m21.16-21.16v21.16m21.15-21.16v21.16m21.16-21.16v21.16m21.15-21.16v21.16m21.16-21.16v21.16m-223.11 0v21.16m21.16-21.16v21.16m21.16-21.16v21.16m21.15-21.16v21.16m21.15-21.16v21.16m21.16-21.16v21.16m21.15-21.16v21.16m21.16-21.16v21.16m21.15-21.16v21.16m21.16-21.16v21.16m21.15-21.16v21.16m-227.19 0v21.15m21.16-21.15v21.15m232.7-21.15v21.15m-42.31-21.15v21.15m21.16-21.15v21.15M97.24 312.92v21.15m126.39-21.15v21.15" stroke-width="2" fill="#fff" stroke="#000"/><path stroke="#000" stroke-width="2" d="M38.62 71.44h115.74v62.04H38.62z"/><path d="M106.11 93.8q0 2.24-.8 4-.8 1.73-2.1 3.07-1.27 1.3-2.93 2.44-1.66 1.14-3.53 2.21v5.13h-4.08v-6.95l3.19-1.85q1.73-1 2.82-2.03 1.33-1.18 2.05-2.43.73-1.28.73-3.24 0-2.57-1.75-3.83-1.73-1.27-4.49-1.27-2.46 0-4.67.77-2.19.78-3.46 1.57h-.23v-4.65q1.6-.61 4.03-1.09 2.46-.5 4.65-.5 4.9 0 7.72 2.4 2.85 2.36 2.85 6.26zm-9 25.96h-4.65v-4.8h4.65z" font-size="46.667" aria-label="?" font-weight="400" font-family="sans-serif" letter-spacing="0" word-spacing="0" fill="#000"/><path d="M270.439 69.637l-17.795 55.612 3.604 2.906 13.738-43.327 7.057 21.173 5.246-.151zm4.283 7.228l1.491 4.944c14.316 1.841 26.373 10.901 32.42 23.4l5.34.226c-6.581-15.737-21.505-27.1-39.25-28.57zm-8.34.038c-18.085 1.69-33.179 13.663-39.364 30.023h5.151c5.686-13.239 17.97-22.97 32.722-25.042zm57.253 29.853l-59.065.981-1.302 4.36 46.667-.53-19.57 14.418 1.209 4.604zm-67.33 1.132l-38.647.642 47.874 34.08 4.057-3.152-37.174-27.003 22.588-.265zm28.38 5.303l-5.189.15 14.625 43.931-18.229-13.247-4.321 2.887 31.495 22.437zm31.873.49l-4.321 2.906c.37 2.244.566 4.54.566 6.888 0 12.028-5.054 22.87-13.153 30.532l1.415 5.152c10.102-8.585 16.512-21.39 16.512-35.684 0-3.36-.346-6.635-1.019-9.794zm-91.824 1.623a47.073 47.073 0 00-.717 8.171c0 13.996 6.15 26.56 15.89 35.137l1.528-5.076c-7.815-7.632-12.662-18.28-12.662-30.061 0-1.833.111-3.645.34-5.416zm59.046 15.55l-37.043 27.324 6.982-22.04-3.755-2.567-11.737 36.665 46.855-34.835zm5.17 30.532a41.857 41.857 0 01-18.153 4.114 41.882 41.882 0 01-18.116-4.095l-4.472 3.057a46.547 46.547 0 0022.588 5.812c8.19 0 15.893-2.112 22.588-5.812z" fill="#000" stroke="#000" stroke-width=".60386"/></svg>
